images/logo-stack-overflow.svg

<svg width="21" height="24" viewBox="0 0 21 24" xmlns="http://www.w3.org/2000/svg"><g fill="none" fill-rule="evenodd"><g fill-rule="nonzero" fill="#FFF"><path d="M14.5 24h-11c-1.654 0-3-1.346-3-3v-5.5a1 1 0 0 1 2 0V21c0 .551.449 1 1 1h11c.551 0 1-.449 1-1v-5.5a1 1 0 0 1 2 0V21c0 1.654-1.346 3-3 3z"/><path d="M13 20H5a1 1 0 1 1 0-2h8a1 1 0 0 1 0 2zM13.388 17.315a.982.982 0 0 1-.208-.023l-7.826-1.661a1 1 0 1 1 .415-1.955l7.826 1.66a1 1 0 0 1-.207 1.979zM14.322 14.766a.983.983 0 0 1-.405-.086l-7.312-3.248a1 1 0 1 1 .812-1.828l7.312 3.248a1 1 0 0 1-.407 1.914zM15.766 12.467a.998.998 0 0 1-.586-.189L8.702 7.583a1 1 0 1 1 1.174-1.619l6.477 4.695a1 1 0 0 1-.587 1.808zM17.657 10.519c-.273 0-.545-.111-.743-.329l-5.363-5.938a1 1 0 1 1 1.485-1.341l5.363 5.937a1 1 0 0 1-.742 1.671zM19.91 9.004a.997.997 0 0 1-.866-.498l-4.015-6.92a1 1 0 0 1 1.73-1.004l4.015 6.92a1 1 0 0 1-.864 1.502z"/></g><path d="M-2 0h24v24H-2z"/></g></svg>

<?xml version="1.0" encoding="UTF-8"?>
<svg width="21px" height="24px" viewBox="0 0 21 24" version="1.1" xmlns="http://www.w3.org/2000/svg" xmlns:xlink="http://www.w3.org/1999/xlink">
    <defs></defs>
    <g id="Page-1" stroke="none" stroke-width="1" fill="none" fill-rule="evenodd">
        <g id="logo-stack-overflow" transform="translate(-2.000000, 0.000000)">
            <g id="Filled_Icons" transform="translate(2.000000, 0.000000)" fill-rule="nonzero" fill="#FFFFFF">
                <g id="Group">
                    <path d="M14.5,24 L3.5,24 C1.846,24 0.5,22.654 0.5,21 L0.5,15.5 C0.5,14.948 0.948,14.5 1.5,14.5 C2.052,14.5 2.5,14.948 2.5,15.5 L2.5,21 C2.5,21.551 2.949,22 3.5,22 L14.5,22 C15.051,22 15.5,21.551 15.5,21 L15.5,15.5 C15.5,14.948 15.948,14.5 16.5,14.5 C17.052,14.5 17.5,14.948 17.5,15.5 L17.5,21 C17.5,22.654 16.154,24 14.5,24 Z" id="Shape"></path>
                    <path d="M13,20 L5,20 C4.448,20 4,19.553 4,19 C4,18.448 4.448,18 5,18 L13,18 C13.552,18 14,18.448 14,19 C14,19.553 13.552,20 13,20 Z" id="Shape"></path>
                    <path d="M13.388,17.315 C13.319,17.315 13.249,17.307 13.18,17.292 L5.354,15.631 C4.813,15.518 4.469,14.986 4.583,14.445 C4.697,13.906 5.228,13.559 5.769,13.676 L13.595,15.336 C14.136,15.451 14.48,15.982 14.366,16.522 C14.265,16.992 13.85,17.315 13.388,17.315 Z" id="Shape"></path>
                    <path d="M14.322,14.766 C14.186,14.766 14.048,14.739 13.917,14.68 L6.605,11.432 C6.1,11.207 5.873,10.617 6.097,10.113 C6.322,9.608 6.914,9.381 7.417,9.604 L14.729,12.852 C15.234,13.077 15.461,13.667 15.237,14.172 C15.071,14.545 14.705,14.766 14.322,14.766 Z" id="Shape"></path>
                    <path d="M15.766,12.467 C15.563,12.467 15.357,12.406 15.18,12.278 L8.702,7.583 C8.255,7.26 8.155,6.634 8.479,6.187 C8.803,5.74 9.427,5.64 9.876,5.964 L16.353,10.659 C16.8,10.983 16.9,11.608 16.576,12.055 C16.381,12.324 16.075,12.467 15.766,12.467 Z" id="Shape"></path>
                    <path d="M17.657,10.519 C17.384,10.519 17.112,10.408 16.914,10.19 L11.551,4.252 C11.181,3.842 11.213,3.21 11.623,2.84 C12.033,2.469 12.665,2.502 13.036,2.911 L18.399,8.848 C18.769,9.258 18.737,9.891 18.327,10.261 C18.135,10.434 17.896,10.519 17.657,10.519 Z" id="Shape"></path>
                    <path d="M19.91,9.004 C19.565,9.004 19.23,8.827 19.044,8.506 L15.029,1.586 C14.752,1.109 14.914,0.498 15.392,0.22 C15.87,-0.058 16.48,0.105 16.759,0.582 L20.774,7.502 C21.051,7.981 20.889,8.592 20.411,8.869 C20.253,8.961 20.081,9.004 19.91,9.004 Z" id="Shape"></path>
                </g>
            </g>
            <g id="Frames-24px">
                <rect id="Rectangle-path" x="0" y="0" width="24" height="24"></rect>
            </g>
        </g>
    </g>
</svg>
